dist/assets/images/icons/ico-slide-8.svg

<svg width="34" height="30" viewBox="0 0 34 30" fill="none" xmlns="http://www.w3.org/2000/svg">
<path d="M12.0572 8.16222L11.8406 7.78743H11.4078H8.51625L12.5955 0.75H21.4378L25.6536 8.08472L24.0059 10.9606H20.9434L17.6471 5.28954L16.997 4.17115L16.3494 5.29097L13.3725 10.4386L12.0572 8.16222Z" stroke="#DF0112" stroke-width="1.5"/>
<path d="M11.9679 25.3878L11.752 25.7614L11.9665 26.1358L13.4009 28.6395H5.26866L0.866271 21.0041L5.11648 13.6691H8.44217L9.97663 16.3544L6.7172 21.9875L6.0659 23.1131H7.36637H13.2821L11.9679 25.3878Z" stroke="#DF0112" stroke-width="1.5"/>
<path d="M27.2836 21.9889L24.3421 16.8801H26.9736H27.4044L27.6215 16.508L29.086 13.9973L33.134 21.0036L28.7313 28.6395H20.2269L18.5479 25.7612L20.0779 23.1131H26.6336H27.9309L27.2836 21.9889Z" stroke="#0000FF" stroke-width="1.5"/>
</svg>

<svg width="34" height="30" fill="none" xmlns="http://www.w3.org/2000/svg"><path d="M12.057 8.162l-.216-.375H8.516L12.596.75h8.842l4.216 7.335-1.648 2.876h-3.063L17.647 5.29l-.65-1.119-.648 1.12-2.976 5.148-1.316-2.277zm-.089 17.226l-.216.373.214.375 1.435 2.504H5.269L.866 21.004l4.25-7.335h3.326l1.535 2.685-3.26 5.634-.651 1.125h7.216l-1.314 2.275z" stroke="#DF0112" stroke-width="1.5"/><path d="M27.284 21.989l-2.942-5.109h3.062l.218-.372 1.464-2.51 4.048 7.006-4.403 7.636h-8.504l-1.68-2.879 1.53-2.648h7.854l-.647-1.124z" stroke="#00F" stroke-width="1.5"/></svg>
